vendor/shopware/storefront/Resources/app/storefront/dist/assets/icon/solid/x-drag-horizontal.svg

<svg xmlns="http://www.w3.org/2000/svg" width="16" height="16" viewBox="0 0 16 16">
  <path fill="#758CA3" fill-rule="evenodd" d="M6,4 C5.44771525,4 5,3.55228475 5,3 C5,2.44771525 5.44771525,2 6,2 C6.55228475,2 7,2.44771525 7,3 C7,3.55228475 6.55228475,4 6,4 Z M6,9 C5.44771525,9 5,8.55228475 5,8 C5,7.44771525 5.44771525,7 6,7 C6.55228475,7 7,7.44771525 7,8 C7,8.55228475 6.55228475,9 6,9 Z M6,14 C5.44771525,14 5,13.5522847 5,13 C5,12.4477153 5.44771525,12 6,12 C6.55228475,12 7,12.4477153 7,13 C7,13.5522847 6.55228475,14 6,14 Z M10,4 C9.44771525,4 9,3.55228475 9,3 C9,2.44771525 9.44771525,2 10,2 C10.5522847,2 11,2.44771525 11,3 C11,3.55228475 10.5522847,4 10,4 Z M10,9 C9.44771525,9 9,8.55228475 9,8 C9,7.44771525 9.44771525,7 10,7 C10.5522847,7 11,7.44771525 11,8 C11,8.55228475 10.5522847,9 10,9 Z M10,14 C9.44771525,14 9,13.5522847 9,13 C9,12.4477153 9.44771525,12 10,12 C10.5522847,12 11,12.4477153 11,13 C11,13.5522847 10.5522847,14 10,14 Z"/>
</svg>

<svg xmlns="http://www.w3.org/2000/svg" width="16" height="16" viewBox="0 0 16 16"><path fill="#758CA3" fill-rule="evenodd" d="M6 4c-.5523 0-1-.4477-1-1s.4477-1 1-1 1 .4477 1 1-.4477 1-1 1zm0 5c-.5523 0-1-.4477-1-1s.4477-1 1-1 1 .4477 1 1-.4477 1-1 1zm0 5c-.5523 0-1-.4477-1-1s.4477-1 1-1 1 .4477 1 1-.4477 1-1 1zm4-10c-.5523 0-1-.4477-1-1s.4477-1 1-1 1 .4477 1 1-.4477 1-1 1zm0 5c-.5523 0-1-.4477-1-1s.4477-1 1-1 1 .4477 1 1-.4477 1-1 1zm0 5c-.5523 0-1-.4477-1-1s.4477-1 1-1 1 .4477 1 1-.4477 1-1 1z"/></svg>
